packages/icons/general/NFTSelected.svg

<svg width="27" height="26" viewBox="0 0 27 26" xmlns="http://www.w3.org/2000/svg">
<g>
        <path
            d="M13.5 25C20.1274 25 25.5 19.6274 25.5 13C25.5 6.37258 20.1274 1 13.5 1C6.87258 1 1.5 6.37258 1.5 13C1.5 19.6274 6.87258 25 13.5 25Z"
            fill="#627EEA"
        />
        <path
            d="M13.4976 6.6001L13.4102 6.89182V15.3563L13.4976 15.4419L17.4966 13.1195L13.4976 6.6001Z"
            fill="#C0CBF6"
        />
        <path d="M13.4992 6.6001L9.5 13.1195L13.4992 15.4419V11.3335V6.6001Z" fill="white" />
        <path d="M13.4985 16.1846L13.4492 16.2436V19.2587L13.4985 19.4L17.5 13.8633L13.4985 16.1846Z" fill="#C0CBF6" />
        <path d="M13.4992 19.4V16.1846L9.5 13.8633L13.4992 19.4Z" fill="white" />
        <path d="M13.498 15.4463L17.4971 13.1238L13.498 11.3379V15.4463Z" fill="#8197EE" />
        <path d="M9.5 13.1238L13.4992 15.4463V11.3379L9.5 13.1238Z" fill="#C0CBF6" />
        <path
            d="M13.5 24C7.42487 24 2.5 19.0751 2.5 13H0.5C0.5 20.1797 6.3203 26 13.5 26V24ZM24.5 13C24.5 19.0751 19.5751 24 13.5 24V26C20.6797 26 26.5 20.1797 26.5 13H24.5ZM13.5 2C19.5751 2 24.5 6.92487 24.5 13H26.5C26.5 5.8203 20.6797 0 13.5 0V2ZM13.5 0C6.3203 0 0.5 5.8203 0.5 13H2.5C2.5 6.92487 7.42487 2 13.5 2V0Z"
            fill="white"
        />
    </g>
</svg>

<svg xmlns="http://www.w3.org/2000/svg" viewBox="0 0 27 26">
    <path fill="#627EEA" d="M13.5 25c6.627 0 12-5.373 12-12s-5.373-12-12-12-12 5.373-12 12 5.373 12 12 12Z"/>
    <path fill="#C0CBF6" d="m13.498 6.6-.088.292v8.464l.088.086 3.999-2.322-4-6.52Z"/>
    <path fill="#fff" d="m13.5 6.6-4 6.52 4 2.322V6.6Z"/>
    <path fill="#C0CBF6" d="m13.498 16.185-.049.059v3.015l.05.141 4.001-5.537-4.002 2.322Z"/>
    <path fill="#fff" d="M13.5 19.4v-3.215l-4-2.322 4 5.537Z"/>
    <path fill="#8197EE" d="m13.498 15.446 4-2.322-4-1.786v4.108Z"/>
    <path fill="#C0CBF6" d="m9.5 13.124 4 2.322v-4.108l-4 1.786Z"/>
    <path fill="#fff" d="M13.5 24c-6.075 0-11-4.925-11-11h-2c0 7.18 5.82 13 13 13v-2Zm11-11c0 6.075-4.925 11-11 11v2c7.18 0 13-5.82 13-13h-2Zm-11-11c6.075 0 11 4.925 11 11h2c0-7.18-5.82-13-13-13v2Zm0-2C6.32 0 .5 5.82.5 13h2c0-6.075 4.925-11 11-11V0Z"/>
</svg>
